public/assets/hand.svg

<svg width="463" height="489" viewBox="0 0 463 489" fill="none" xmlns="http://www.w3.org/2000/svg">
<path d="M398.96 238.344H415.76L439.16 241.044L453.16 250.344L461.76 259.744L455.86 279.744L438.66 293.244L404.66 288.644L380.16 280.544L398.96 238.344Z" fill="#FACABC"/>
<path d="M114.859 489.745H346.159L345.759 458.245L359.559 461.245L366.059 453.145L367.659 433.645L366.059 417.145L378.759 416.645L397.159 414.745L406.359 408.245L416.059 397.145L395.259 369.344L376.559 344.245L356.359 336.344L121.459 246.145L101.859 300.745L74.7585 344.745L72.5586 367.945L93.9586 414.245L114.859 489.745Z" fill="#FACABC"/>
<path d="M210.86 329.045L0.660156 134.145L61.8602 78.645L57.1602 70.645L88.3602 55.3449L125.56 20.8449L140.86 35.0449L217.46 0.544922L228.56 21.3449L248.16 24.645L328.66 17.4449L330.96 35.5449L393.06 43.9449L390.66 70.4449L462.76 94.7449L349.66 349.345L245.36 305.545L210.86 329.045Z" fill="#FFF1F0"/>
<path d="M228.758 316.845L222.558 285.645L213.958 260.045L210.758 234.445L214.658 212.045L221.758 197.045L236.258 184.145L251.458 181.545L271.058 193.645L282.158 216.445L296.458 254.845L301.758 284.745L309.558 347.245L228.758 316.845Z" fill="#FACABC"/>
<path d="M121.459 246.145L146.459 269.344L126.559 314.544L94.1586 347.245L91.7585 370.945L119.059 413.745L136.559 489.745H114.859L93.9586 414.245L72.5586 367.945L74.7585 344.745L101.859 300.745L121.459 246.145Z" fill="#BE988D"/>
<path d="M223.274 203.717L237.551 192.414H255.396L271.457 209.665L280.975 230.486L255.396 242.978L223.274 248.927L219.109 230.486L223.274 203.717Z" fill="#FFF1F0"/>
</svg>

<svg width="463" height="489" fill="none" xmlns="http://www.w3.org/2000/svg"><path d="M398.96 238.344h16.8l23.4 2.7 14 9.3 8.6 9.4-5.9 20-17.2 13.5-34-4.6-24.5-8.1 18.8-42.2zM114.859 489.745h231.3l-.4-31.5 13.8 3 6.5-8.1 1.6-19.5-1.6-16.5 12.7-.5 18.4-1.9 9.2-6.5 9.7-11.1-20.8-27.801-18.7-25.099-20.2-7.901-234.9-90.199-19.6 54.6-27.1 44-2.2 23.2 21.4 46.3 20.9 75.5z" fill="#FACABC"/><path d="M210.86 329.045L.66 134.145l61.2-55.5-4.7-8 31.2-15.3 37.2-34.5 15.3 14.2 76.6-34.5 11.1 20.8 19.6 3.3 80.5-7.2 2.3 18.1 62.1 8.4-2.4 26.5 72.1 24.3-113.1 254.6-104.3-43.8-34.5 23.5z" fill="#FFF1F0"/><path d="M228.758 316.845l-6.2-31.2-8.6-25.6-3.2-25.6 3.9-22.4 7.1-15 14.5-12.9 15.2-2.6 19.6 12.1 11.1 22.8 14.3 38.4 5.3 29.9 7.8 62.5-80.8-30.4z" fill="#FACABC"/><path d="M121.459 246.145l25 23.199-19.9 45.2-32.4 32.701-2.4 23.7 27.3 42.8 17.5 76h-21.7l-20.9-75.5-21.4-46.3 2.2-23.2 27.1-44 19.6-54.6z" fill="#BE988D"/><path d="M223.274 203.717l14.277-11.303h17.845l16.061 17.251 9.518 20.821-25.579 12.492-32.122 5.949-4.165-18.441 4.165-26.769z" fill="#FFF1F0"/></svg>
